img/ok.svg

<svg width="24" height="24" viewBox="0 0 24 24" fill="none" xmlns="http://www.w3.org/2000/svg">
<path fill-rule="evenodd" clip-rule="evenodd" d="M12 24C18.6274 24 24 18.6274 24 12C24 5.37258 18.6274 0 12 0C5.37258 0 0 5.37258 0 12C0 18.6274 5.37258 24 12 24Z" fill="#8AB100"/>
<path d="M16.2804 8.28024C16.6705 7.9071 17.3037 7.90651 17.6946 8.27892C18.0855 8.65132 18.0861 9.25571 17.696 9.62885L11.7078 15.3561C11.3174 15.7295 10.6837 15.7298 10.2929 15.3568L7.29289 12.4931C6.90237 12.1204 6.90237 11.516 7.29289 11.1432C7.68342 10.7704 8.31658 10.7704 8.70711 11.1432L10.9993 13.3312L16.2804 8.28024Z" fill="white"/>
</svg>

<svg xmlns="http://www.w3.org/2000/svg" width="24" height="24" viewBox="0 0 24 24"><g><g opacity="-1"><path fill="#8ab100" d="M12 24c6.627 0 12-5.373 12-12S18.627 0 12 0 0 5.373 0 12s5.373 12 12 12z"/></g><g opacity="-1"><g><g opacity="-1"><path fill="#fff" d="M16.28 8.28a1.034 1.034 0 0 1 1.415-.001c.39.372.391.977.001 1.35l-5.988 5.727a1.034 1.034 0 0 1-1.415 0l-3-2.863a.924.924 0 0 1 0-1.35 1.034 1.034 0 0 1 1.414 0L11 13.331z"/></g></g></g></g></svg>
